packages/icons/src/components/Flags/assets/disabled/cyprus.svg

<svg width="24" height="24" viewBox="0 0 24 24" fill="none" xmlns="http://www.w3.org/2000/svg">
<g>
<path d="M12 24C18.6274 24 24 18.6274 24 12C24 5.37258 18.6274 0 12 0C5.37258 0 0 5.37258 0 12C0 18.6274 5.37258 24 12 24Z" fill="#FCFCFC"/>
<path d="M18.7825 10.4348C18.4173 10.4348 17.9651 10.4348 17.2173 10.4348C17.2173 13.3163 14.8813 15.6522 11.9999 15.6522C9.11838 15.6522 6.78255 13.3163 6.78255 10.4348C6.27817 10.4348 5.72163 10.4348 5.21735 10.4348C5.21735 13.5386 7.30216 16.1555 10.1479 16.9615C9.83594 17.5541 9.88347 18.3003 10.3292 18.8565C10.9145 18.3873 11.5206 17.9017 12.0347 17.4897C12.5488 17.9017 13.1549 18.3874 13.7403 18.8565C14.1903 18.2948 14.2346 17.5391 13.9123 16.9436C16.7269 16.1179 18.7825 13.5166 18.7825 10.4348V10.4348Z" fill="#8A8A8A"/>
<path d="M7.82608 9.91304C7.82608 9.91304 7.82608 12.5217 10.4348 12.5217L10.9565 13.0434H12C12 13.0434 12.5217 11.4782 13.5652 11.4782C13.5652 11.4782 13.5652 10.4348 14.6087 10.4348C15.6521 10.4348 16.1739 10.4348 16.1739 10.4348C16.1739 10.4348 15.6521 8.34779 18.2608 6.78258L17.2173 6.26086C17.2173 6.26086 13.5652 8.86955 10.9565 8.34783V9.39132H9.913L9.39128 8.8696L7.82608 9.91304Z" fill="#D5D5D5"/>
</g>
<defs>
<clipPath id="clip0_3072_419">
<rect width="24" height="24" fill="white"/>
</clipPath>
</defs>
</svg>

<svg xmlns="http://www.w3.org/2000/svg" width="24" height="24" fill="none" viewBox="0 0 24 24">
    <path fill="#fcfcfc" d="M12 24c6.627 0 12-5.373 12-12S18.627 0 12 0 0 5.373 0 12s5.373 12 12 12"/>
    <path fill="#8a8a8a" d="M18.783 10.435h-1.566a5.217 5.217 0 0 1-10.434 0H5.217a6.786 6.786 0 0 0 4.93 6.527 1.74 1.74 0 0 0 .182 1.895l1.706-1.367 1.705 1.367c.45-.562.495-1.318.172-1.913a6.785 6.785 0 0 0 4.87-6.51"/>
    <path fill="#d5d5d5" d="M7.826 9.913s0 2.609 2.609 2.609l.521.521H12s.522-1.565 1.565-1.565c0 0 0-1.043 1.044-1.043h1.565s-.522-2.087 2.087-3.652l-1.044-.522s-3.652 2.609-6.26 2.087V9.39H9.913l-.522-.521z"/>
</svg>
